packages/ui-icons/src/Basic/16/Crown-line_16.svg

<svg viewBox="0 0 20 20" xmlns="http://www.w3.org/2000/svg">
<path fill-rule="evenodd" clip-rule="evenodd" d="M8.77282 3H11.2272L14.1969 9.79693L14.1982 9.79981L14.2065 9.81854L17.4794 6.9H19.0047L18.139 17H1.86102L0.995308 6.9H2.52055L5.79375 9.81877L5.8018 9.7998L8.77282 3ZM9.42718 4L6.71925 10.1977L6.16622 11.5013L5.13613 10.5722L2.13945 7.9H2.08469L2.77897 16H17.221L17.9153 7.9H17.8606L14.8524 10.5824L13.8334 11.4413L13.2818 10.2002L10.5728 4H9.42718Z" />
</svg>

<svg viewBox="0 0 20 20" xmlns="http://www.w3.org/2000/svg"><path fill-rule="evenodd" clip-rule="evenodd" d="M8.773 3h2.454l2.97 6.797.001.003.008.019L17.48 6.9h1.526L18.139 17H1.861L.995 6.9h1.526l3.273 2.919.008-.02L8.772 3Zm.654 1L6.72 10.198 6.166 11.5l-1.03-.929L2.14 7.9h-.054l.694 8.1h14.442l.694-8.1h-.054l-3.009 2.682-1.019.86-.551-1.242-2.71-6.2H9.428Z"/></svg>
